X:4
T:Hanske van Leuven
O:belgium
M:6/16
L:1/8
Q:1/4=98
K:G
V:1
"G" d d/dd/ |dc/B d/|dd/ eB/|"D" d3/2 c3/2 |
cc/c c/|cB/ Ad/|d d/ef/ |"G" g3 :|
"G" B3 |d3 |d/e/d/c B/|"D" d3/2 c3/2 |
a/b/a/g/ a/g/|f/g/ f/e/f/e/ |dd/e f/|"G" g3 |]
